X: 1393
T: Doug Daniels' Waltz
B: australian traditional tunes wiki
M:3/4
L:1/4
R: Waltz
Q: 1/4=100
K:G
V:1 
|:"G"gd/B/ G/B/|gd/B/ G/B/|"D7"fe d/c/|A3|1"D7"fed|F2-F/A/|cAG|"G"d3:|2fed|dc E/F/|"G"G3-|GF(3E/F/E/||
"G"DBB|DBB|"C"EcB|E3|"Am"Ec/A/ B/d/|c3|"D7"dfe|d3|
"G"DBB|DBB/D/|"C"EcB|E3|"D7"fed|dc E/F/|"G"G3-|G3||
% abcbook-tune_id 6342d53ab2df03f2b27ba863


% abcbook-boost 0
% abcbook-tablature 
% abcbook-transpose 
% abcbook-lastupdated 1665324362818
% abcbook-soundfonts 
% abcbook-repeats 1
% NFF Book 2009

